simple/expensify.svg

<svg viewBox="0 0 24 24" xmlns="http://www.w3.org/2000/svg"><path d="M8.16 17.52h7.68v-2.28h-4.872V13.1h4.15v-2.33h-4.16V8.73h4.872V6.47H8.15v11.04ZM21.6 12v0c0 2.21-.77 4.35-2.16 6.07l1.7 1.7h0c1.84-2.17 2.86-4.93 2.85-7.776 0-2.93-1.06-5.616-2.79-7.68l-1.71 1.7 0 0c1.35 1.69 2.08 3.8 2.08 5.97Zm-3.53 7.44h0c-3.51 2.85-8.52 2.88-12.05.07l-1.71 1.7H4.3c2.15 1.8 4.87 2.79 7.68 2.78 2.97 0 5.68-1.08 7.77-2.86l-1.71-1.71ZM4.63 18.16h0c-1.45-1.74-2.24-3.92-2.232-6.17 0-5.304 4.296-9.6 9.6-9.6 2.35-.001 4.48.84 6.16 2.23l1.7-1.71v0c-2.19-1.9-4.99-2.94-7.872-2.93 -6.624 0-12 5.37-12 12 0 3 1.104 5.76 2.928 7.872l1.7-1.71Z"/></svg>

<svg role="img" viewBox="0 0 24 24" xmlns="http://www.w3.org/2000/svg"><title>Expensify</title><path d="M8.16 17.52h7.68v-2.28h-4.872v-2.136h4.152v-2.328h-4.152v-2.04h4.872V6.48H8.16v11.04z M21.6 12a9.608 9.608 0 01-2.16 6.072l1.704 1.704A11.958 11.958 0 0024 12c0-2.928-1.056-5.616-2.784-7.68l-1.704 1.704A9.61 9.61 0 0121.6 12z M18.072 19.44a9.608 9.608 0 01-12.048.072L4.32 21.216A11.913 11.913 0 0012 24c2.976 0 5.688-1.08 7.776-2.856l-1.704-1.704z M4.632 18.168A9.613 9.613 0 012.4 12c0-5.304 4.296-9.6 9.6-9.6 2.352 0 4.488.84 6.168 2.232l1.704-1.704A12.02 12.02 0 0012 0C5.376 0 0 5.376 0 12c0 3 1.104 5.76 2.928 7.872l1.704-1.704z"/></svg>
